img/lm-bg.svg

<svg width="117" height="345" fill="none" xmlns="http://www.w3.org/2000/svg"><path d="M52.298 138.223l51.298 34.306v68.612l-51.298-34.306v-68.612z" fill="#7BA7D3"/><path d="M1 241.141l51.298-34.305 51.298 34.305-51.298 34.306L1 241.141z" fill="#6699CB"/><path d="M103.596 35.306l51.298 34.306v68.611l-51.298-34.305V35.306z" fill="#7BA7D3"/><path d="M1 241.141v-68.612l51.298-34.306 51.298 34.306v68.612" stroke="#2F6799" stroke-miterlimit="10"/><path d="M154.894 206.835l-51.298 34.306-51.298-34.306v-68.612l51.298-34.306 51.298 34.306v68.612zM206.192 35.306L154.894 1l-51.298 34.306m102.596 68.612l-51.298 34.305 51.298-34.305z" stroke="#2F6799" stroke-miterlimit="10"/><path d="M103.596 241.141l51.298 34.306v68.612" stroke="#2F6799" stroke-miterlimit="10"/><path d="M206.192 309.753l-51.298 34.306-51.298-34.306v-68.611l51.298-34.306 51.298 34.306v68.611z" stroke="#4C6B89" stroke-miterlimit="10"/></svg>

<svg width="117" height="345" viewBox="0 0 117 345" fill="none" xmlns="http://www.w3.org/2000/svg">
<path d="M52.2979 138.223L103.596 172.529V241.141L52.2979 206.835V138.223Z" fill="#7BA7D3"/>
<path d="M1 241.141L52.298 206.836L103.596 241.141L52.298 275.447L1 241.141Z" fill="#6699CB"/>
<path d="M103.596 35.3059L154.894 69.6117V138.223L103.596 103.918V35.3059Z" fill="#7BA7D3"/>
<path d="M1 241.141V172.529L52.298 138.223L103.596 172.529V241.141" stroke="#2F6799" stroke-miterlimit="10"/>
<path d="M154.894 206.835L103.596 241.141L52.2979 206.835V138.223L103.596 103.917L154.894 138.223V206.835Z" stroke="#2F6799" stroke-miterlimit="10"/>
<path d="M206.192 35.3058L154.894 1L103.596 35.3058M206.192 103.918L154.894 138.223L206.192 103.918Z" stroke="#2F6799" stroke-miterlimit="10"/>
<path d="M103.596 241.141L154.894 275.447V344.059" stroke="#2F6799" stroke-miterlimit="10"/>
<path d="M206.192 309.753L154.894 344.059L103.596 309.753V241.142L154.894 206.836L206.192 241.142V309.753Z" stroke="#4C6B89" stroke-miterlimit="10"/>
</svg>
